common/src/main/resources/glyphs/plugins/resharper/PsiServices/HidesAndImplements.svg

<svg xmlns="http://www.w3.org/2000/svg" width="16" height="16" data-big="true" viewBox="0 0 24 24"><path fill="#AED581" d="M12.42 5.29c-1.1-.1-2.07.71-2.17 1.82L10 10h2.82v2h-3l-.44 5.07A4.001 4.001 0 0 1 2 18.83l1.5-1.5c.33 1.05 1.46 1.64 2.5 1.3.78-.24 1.33-.93 1.4-1.74L7.82 12h-3v-2H8l.27-3.07a4.01 4.01 0 0 1 4.33-3.65c1.26.11 2.4.81 3.06 1.89l-1.5 1.5c-.25-.77-.93-1.31-1.74-1.38M22 13.65l-1.41-1.41-2.83 2.83-2.83-2.83-1.43 1.41 2.85 2.85-2.85 2.81 1.43 1.41 2.83-2.83 2.83 2.83L22 19.31l-2.83-2.81z"/><path fill="#FFC107" d="M3 13.5a.5.5 0 0 0-.5.5.5.5 0 0 0 .5.5.5.5 0 0 0 .5-.5.5.5 0 0 0-.5-.5M6 17a1 1 0 0 0-1 1 1 1 0 0 0 1 1 1 1 0 0 0 1-1 1 1 0 0 0-1-1m4 3.5a.5.5 0 0 0-.5.5.5.5 0 0 0 .5.5.5.5 0 0 0 .5-.5.5.5 0 0 0-.5-.5m-7-11a.5.5 0 0 0-.5.5.5.5 0 0 0 .5.5.5.5 0 0 0 .5-.5.5.5 0 0 0-.5-.5M6 13a1 1 0 0 0-1 1 1 1 0 0 0 1 1 1 1 0 0 0 1-1 1 1 0 0 0-1-1m15 .5a.5.5 0 0 0-.5.5.5.5 0 0 0 .5.5.5.5 0 0 0 .5-.5.5.5 0 0 0-.5-.5M10 17a1 1 0 0 0-1 1 1 1 0 0 0 1 1 1 1 0 0 0 1-1 1 1 0 0 0-1-1M2.5 5.27l3.78 3.78L6 9a1 1 0 0 0-1 1 1 1 0 0 0 1 1 1 1 0 0 0 1-1c0-.1-.03-.19-.06-.28l2.81 2.81c-.71.11-1.25.73-1.25 1.47a1.5 1.5 0 0 0 1.5 1.5c.74 0 1.36-.54 1.47-1.25l2.81 2.81c-.09-.03-.18-.06-.28-.06a1 1 0 0 0-1 1 1 1 0 0 0 1 1 1 1 0 0 0 1-1c0-.1-.03-.19-.06-.28l3.78 3.78L20 20.23 3.77 4zM14 20.5a.5.5 0 0 0-.5.5.5.5 0 0 0 .5.5.5.5 0 0 0 .5-.5.5.5 0 0 0-.5-.5M18 7a1 1 0 0 0 1-1 1 1 0 0 0-1-1 1 1 0 0 0-1 1 1 1 0 0 0 1 1m0 4a1 1 0 0 0 1-1 1 1 0 0 0-1-1 1 1 0 0 0-1 1 1 1 0 0 0 1 1m0 4a1 1 0 0 0 1-1 1 1 0 0 0-1-1 1 1 0 0 0-1 1 1 1 0 0 0 1 1m-8-8a1 1 0 0 0 1-1 1 1 0 0 0-1-1 1 1 0 0 0-1 1 1 1 0 0 0 1 1m11 3.5a.5.5 0 0 0 .5-.5.5.5 0 0 0-.5-.5.5.5 0 0 0-.5.5.5.5 0 0 0 .5.5m-11-7a.5.5 0 0 0 .5-.5.5.5 0 0 0-.5-.5.5.5 0 0 0-.5.5.5.5 0 0 0 .5.5m4 0a.5.5 0 0 0 .5-.5.5.5 0 0 0-.5-.5.5.5 0 0 0-.5.5.5.5 0 0 0 .5.5m-.2 8h.2a1.5 1.5 0 0 0 1.5-1.5A1.5 1.5 0 0 0 14 8.5a1.5 1.5 0 0 0-1.5 1.5v.2c.11.67.63 1.19 1.3 1.3M14 7a1 1 0 0 0 1-1 1 1 0 0 0-1-1 1 1 0 0 0-1 1 1 1 0 0 0 1 1"/></svg>

<!--
  - The MIT License (MIT)
  -
  - Copyright (c) 2015-2024 Elior "Mallowigi" Boukhobza
  -
  - Permission is hereby granted, free of charge, to any person obtaining a copy
  - of this software and associated documentation files (the "Software"), to deal
  - in the Software without restriction, including without limitation the rights
  - to use, copy, modify, merge, publish, distribute, sublicense, and/or sell
  - copies of the Software, and to permit persons to whom the Software is
  - furnished to do so, subject to the following conditions:
  -
  - The above copyright notice and this permission notice shall be included in all
  - copies or substantial portions of the Software.
  -
  - THE SOFTWARE IS PROVIDED "AS IS", WITHOUT WARRANTY OF ANY KIND, EXPRESS OR
  - IMPLIED, INCLUDING BUT NOT LIMITED TO THE WARRANTIES OF MERCHANTABILITY,
  - FITNESS FOR A PARTICULAR PURPOSE AND NONINFRINGEMENT. IN NO EVENT SHALL THE
  - AUTHORS OR COPYRIGHT HOLDERS BE LIABLE FOR ANY CLAIM, DAMAGES OR OTHER
  - LIABILITY, WHETHER IN AN ACTION OF CONTRACT, TORT OR OTHERWISE, ARISING FROM,
  - OUT OF OR IN CONNECTION WITH THE SOFTWARE OR THE USE OR OTHER DEALINGS IN THE
  - SOFTWARE.
  -->


<svg data-big="true" xmlns="http://www.w3.org/2000/svg" version="1.1" width="16px" height="16px" viewBox="0 0 24 24">
  <path fill="#AED581"
        d="M12.42,5.29C11.32,5.19 10.35,6 10.25,7.11L10,10H12.82V12H9.82L9.38,17.07C9.18,19.27 7.24,20.9 5.04,20.7C3.79,20.59 2.66,19.9 2,18.83L3.5,17.33C3.83,18.38 4.96,18.97 6,18.63C6.78,18.39 7.33,17.7 7.4,16.89L7.82,12H4.82V10H8L8.27,6.93C8.46,4.73 10.39,3.1 12.6,3.28C13.86,3.39 15,4.09 15.66,5.17L14.16,6.67C13.91,5.9 13.23,5.36 12.42,5.29M22,13.65L20.59,12.24L17.76,15.07L14.93,12.24L13.5,13.65L16.35,16.5L13.5,19.31L14.93,20.72L17.76,17.89L20.59,20.72L22,19.31L19.17,16.5L22,13.65Z"/>

  <path fill="#FFC107"
        d="M3,13.5A0.5,0.5 0 0,0 2.5,14A0.5,0.5 0 0,0 3,14.5A0.5,0.5 0 0,0 3.5,14A0.5,0.5 0 0,0 3,13.5M6,17A1,1 0 0,0 5,18A1,1 0 0,0 6,19A1,1 0 0,0 7,18A1,1 0 0,0 6,17M10,20.5A0.5,0.5 0 0,0 9.5,21A0.5,0.5 0 0,0 10,21.5A0.5,0.5 0 0,0 10.5,21A0.5,0.5 0 0,0 10,20.5M3,9.5A0.5,0.5 0 0,0 2.5,10A0.5,0.5 0 0,0 3,10.5A0.5,0.5 0 0,0 3.5,10A0.5,0.5 0 0,0 3,9.5M6,13A1,1 0 0,0 5,14A1,1 0 0,0 6,15A1,1 0 0,0 7,14A1,1 0 0,0 6,13M21,13.5A0.5,0.5 0 0,0 20.5,14A0.5,0.5 0 0,0 21,14.5A0.5,0.5 0 0,0 21.5,14A0.5,0.5 0 0,0 21,13.5M10,17A1,1 0 0,0 9,18A1,1 0 0,0 10,19A1,1 0 0,0 11,18A1,1 0 0,0 10,17M2.5,5.27L6.28,9.05L6,9A1,1 0 0,0 5,10A1,1 0 0,0 6,11A1,1 0 0,0 7,10C7,9.9 6.97,9.81 6.94,9.72L9.75,12.53C9.04,12.64 8.5,13.26 8.5,14A1.5,1.5 0 0,0 10,15.5C10.74,15.5 11.36,14.96 11.47,14.25L14.28,17.06C14.19,17.03 14.1,17 14,17A1,1 0 0,0 13,18A1,1 0 0,0 14,19A1,1 0 0,0 15,18C15,17.9 14.97,17.81 14.94,17.72L18.72,21.5L20,20.23L3.77,4L2.5,5.27M14,20.5A0.5,0.5 0 0,0 13.5,21A0.5,0.5 0 0,0 14,21.5A0.5,0.5 0 0,0 14.5,21A0.5,0.5 0 0,0 14,20.5M18,7A1,1 0 0,0 19,6A1,1 0 0,0 18,5A1,1 0 0,0 17,6A1,1 0 0,0 18,7M18,11A1,1 0 0,0 19,10A1,1 0 0,0 18,9A1,1 0 0,0 17,10A1,1 0 0,0 18,11M18,15A1,1 0 0,0 19,14A1,1 0 0,0 18,13A1,1 0 0,0 17,14A1,1 0 0,0 18,15M10,7A1,1 0 0,0 11,6A1,1 0 0,0 10,5A1,1 0 0,0 9,6A1,1 0 0,0 10,7M21,10.5A0.5,0.5 0 0,0 21.5,10A0.5,0.5 0 0,0 21,9.5A0.5,0.5 0 0,0 20.5,10A0.5,0.5 0 0,0 21,10.5M10,3.5A0.5,0.5 0 0,0 10.5,3A0.5,0.5 0 0,0 10,2.5A0.5,0.5 0 0,0 9.5,3A0.5,0.5 0 0,0 10,3.5M14,3.5A0.5,0.5 0 0,0 14.5,3A0.5,0.5 0 0,0 14,2.5A0.5,0.5 0 0,0 13.5,3A0.5,0.5 0 0,0 14,3.5M13.8,11.5H14A1.5,1.5 0 0,0 15.5,10A1.5,1.5 0 0,0 14,8.5A1.5,1.5 0 0,0 12.5,10V10.2C12.61,10.87 13.13,11.39 13.8,11.5M14,7A1,1 0 0,0 15,6A1,1 0 0,0 14,5A1,1 0 0,0 13,6A1,1 0 0,0 14,7Z"/>
</svg>
